app/assets/icons/polaris/ImageWithTextMajor.svg

<svg viewBox="0 0 20 20" xmlns="http://www.w3.org/2000/svg"><path d="M1.5 2a1.5 1.5 0 0 0-1.5 1.5v5a1.5 1.5 0 0 0 1.5 1.5h6a1.5 1.5 0 0 0 1.5-1.5v-5a1.5 1.5 0 0 0-1.5-1.5h-6zm16.5 4h-6a1 1 0 1 1 0-2h6a1 1 0 1 1 0 2zm-6 4h6a1 1 0 1 0 0-2h-6a1 1 0 1 0 0 2zm6 4h-17a1 1 0 0 1 0-2h17a1 1 0 0 1 0 2zm-3.293 3.707a1 1 0 0 1-.707.293h-13a1 1 0 0 1 0-2h13a1 1 0 0 1 .707 1.707z"/></svg>

<svg viewBox="0 0 20 20" xmlns="http://www.w3.org/2000/svg"><path d="M1.5 2A1.5 1.5 0 0 0 0 3.5v5A1.5 1.5 0 0 0 1.5 10h6A1.5 1.5 0 0 0 9 8.5v-5A1.5 1.5 0 0 0 7.5 2h-6zM18 6h-6a1 1 0 1 1 0-2h6a1 1 0 1 1 0 2zm-6 4h6a1 1 0 1 0 0-2h-6a1 1 0 1 0 0 2zm6 4H1a1 1 0 0 1 0-2h17a1 1 0 0 1 0 2zm-3.293 3.707A1 1 0 0 1 14 18H1a1 1 0 0 1 0-2h13a1 1 0 0 1 .707 1.707z"/></svg>
